X:1
T:I heard a voice from heaven - Tomkins
T:James Gibb editions
T:#
%%score [ 1 2 3 4 ]
L:1/8
Q:1/4=84
M:4/4
K:G
V:1 treble nm="Soprano" snm="S"
V:2 treble nm="Alto" snm="A"
V:3 treble-8 nm="Tenor" snm="T"
V:4 bass nm="Bass" snm="B"
V:1
"^Thomas Tomkins\n(1572-1656)""^I heard a voice from heaven" E4 F4- | F2 ^G2 A4- | A2 A2 B3 B | %3
w: I heard|* a voice|* from hea- ven,|
 A2 G2 F4- |[M:4/4] F2 F2 F4 | z2 ^G4 A2 | B4 ^c2 A2- | AGFE D2 d2- | dcBA G2 c2- | cBAG FG A2- | %10
w: say- ing un\-|* to me:|'Write; from|hence- forth, bless\-|* ed are the dead, bless\-|* ed are the dead, bless\-|* ed are the dead which die|
 A2 ^GF =GE G2- | G2 F(E F4) | ^G2 EE E4 | z2 E2 A2 ^GB | AE z2 z2 E2 | A2 ^Gc BA G2 | %16
w: * in the Lord, which die|* in the *|Lord, in the Lord:|Ev'n so saith the|Spi- rit, ev'n|so saith the Spi- rit, the|
 AA E3 E F2- | FF ^G2 (A3 =G | F4) E4 | B3 B ^c2 dd | (e3 !courtesy!=d ^cBA=c) | B4 F3 F | %22
w: Spi- rit; for they rest|* from their la\- *|* bours,|for they~ rest from their|la\- * * * * *|bours, for they|
 G2 AA (B3 A) | G6 F2- | FE (E4 ^D2) | E2 E>E (A2 B2) | %26
w: rest from their la\- *|* bours,|* their la\- *|bours, for they rest *|
[Q:1/4=82] c3[Q:1/4=81] c[Q:1/4=80] (c2[Q:1/4=78] B2 |[Q:1/4=75] A6[Q:1/4=73] ^G[Q:1/4=72]F) | %28
w: from their la\- *||
[Q:1/4=72] !fermata!^G8 |] %29
w: bours.|
V:2
 B,4 ^D4- | D2 E2 ^C4- | C2 F2 G3 G | F2 E4 D2 |[M:4/4] ^C4 ^D4 | z2 E4 E2 | (D2 B,2) E4 | %7
w: I heard|* a voice|* from hea- ven,|say- ing un-|to me:|'Write; from|hence\- * forth,|
 FE D4 G,A, | B,3 C D2 z2 | E4 (DE =F2) | E6 ^D^C | ^D(B, E4) D2 | E2 C2 B,3 B, | C2 B,D C2 B,E | %14
w: bless- ed are, bless- ed|are the dead|which die * *|* in the|Lord, in * the|Lord, the Lord: Ev'n|so saith the Spi- rit, so|
 (EA,) E,2 E3 D | C E2 E =FD E2 | ^C C3 C3 C | D3 D E2 (F2- | FED^C B,2 =CA,) | B,2 E3 E F2 | %20
w: saith * the Spi- rit,|ev'n so, ev'n so saith the|Spi- rit; for they|rest from their la\-||bours, for they rest|
 ^GG (A2- A=GFE) | ^D2 E4 D2 | z2 ^CC (^DE F2- | FE^D^C =D3 =C) | B,4 B,4 | B,4 E2 DB, | E6 E2 | %27
w: from their la\- * * * *|bours,~ la- bours,|from their la\- * *||bours, for|they rest from their|la- bours,|
 E8 | !fermata!E8 |] %29
w: la-|bours.|
V:3
 G4 B4- | B2 B2 A4- | A2 A2 d2 d(d- | dc B2) ^A2 B2- |[M:4/4][K:treble-8] B2 ^A2 B4 | %5
w: I heard|* a voice|* from hea- ven, say\-|* * * ing un\-|* to me:|
 z2 B3 !courtesy!=A (A2- | A2 ^G2) A4 | A3 !courtesy!=G FE D2 | d3 c BA G2 | c3 B A3 B | c4 B4 | %11
w: 'Write; from hence\-|* * forth,|bless- ed are the dead,|bless- ed are the dead,|bless- ed are the|dead which|
 B4 B4- | B2 A2 ^G2 E2 | A2 ^GB A2 EG | !courtesy!=c2 Bd cA^GB | (A2 Bc dB B2) | A4 A3 A | %17
w: die in|* the Lord: Ev'n|so saith the Spi- rit, ev'n|so saith the Spi- rit, saith the|Spi\- * * * * *|rit; for they|
 B3 B ^c2 (d2- | d!courtesy!=cBA ^G2) AA- | A (^G/F/) G2 AE B2- | B2 E4 A2- | A2 G2 BF B2- | %22
w: rest from their la\-|* * * * * bours, for|* they * rest from their la\-|* bours, they|* rest from their la\-|
 B2 E2 F3 F | G2 AA B3 A | G3 G F4 | ^G4 E (A2 G) | A2 EE A2 EE | (c6 BA) | !fermata!B8 |] %29
w: * bours, for they|rest from their la- bours,|from their la-|bours, their la\- *|bours, for they rest from their|la\- * *|bours.|
V:4
 E,4 B,,4- | B,,2 E,2 A,,4- | A,,2 D,2 G,3 G, | D,2 E,2 F,4 |[M:4/4] F,4 B,,4 | z2 E,4 ^C,2 | %6
w: I heard|* a voice|* from hea- ven,|say- ing un-|to me:|'Write; from|
 B,,4 A,,4- | A,,2 D,3 C,B,,A,, | G,,2 G,3 F,E,D, | C,4 D,4 | E,8 | B,,4 B,,4 | E,8 | z4 z2 z E, | %14
w: hence- forth,|* bless- ed are the|dead, bless- ed are the|dead which|die|in the|Lord:|Ev'n|
 A,2 ^G,B, A,2 E,2 | z A,, E,2 D,=F, E,2 | A,,4 z4 | z8 | z8 | E,3 E, A,,^C, B,,2 | %20
w: so saith the Spi- rit,|ev'n so saith the Spi-|rit;|||for they rest from their|
 (E,>D, ^C,B,,) A,,4 | B,,4 B,,4 | E,2 ^C,C, B,,4- | B,,4 B,,4 | B,,4 B,,4 | (E,3 D, C,2 B,,2) | %26
w: la\- * * * bours,|for they|rest from their la\-|* bours,|from their|la\- * * *|
 A,,6 ^G,,2 | A,,4 E,4 |"^*" !fermata!E,8 |] %29
w: bours, from|their la-|bours.|

